source/images/pantheon-logo-symbol.svg

<svg height="80" viewBox="0 0 38 80" width="38" xmlns="http://www.w3.org/2000/svg" xmlns:xlink="http://www.w3.org/1999/xlink"><mask id="a" fill="#fff"><path d="m0 .53623188h37.9484058v79.46376812h-37.9484058z" fill="#fff" fill-rule="evenodd"/></mask><g fill="none" fill-rule="evenodd"><path d="m3.27078261.536 7.30260869 17.1217391h-9.29391304l3.07362319 7.5362319h18.83478265z" fill="#efd01b"/><path d="m10.5970435 40.846087 6.1513043 14.4927536h-10.95130432l20.24811592 24.6608695-7.3014493-17.1240579h9.2927537l-3.1089855-7.5368116h-4.3113044l-6.1565217-14.4927536z" fill="#efd01b"/><g fill="#fff"><path d="m30.5441739 32.7343188c.2284058 0 .76-.2840579.76-2.9026087 0-2.6156521-.5315942-2.8985507-.76-2.8985507h-12.973913l2.462029 5.8011594z"/><path d="m22.9853913 39.6908406 8.7165217-.0011594c.2313044 0 .7617392-.284058.7617392-2.9014493 0-2.6168116-.5304348-2.8997102-.7617392-2.8997102l-11.1791304.0011595z"/><path d="m30.5441739 47.8028406h-11.7223188l2.4614492 5.8h9.2608696c.2284058 0 .76-.2817392.76-2.8985507 0-2.6173913-.5315942-2.9014493-.76-2.9014493"/><path d="m31.7022029 40.8463188h-15.8336232l2.4626087 5.8011595h13.3710145c.2307246 0 .7617391-.284058.7617391-2.8997102 0-2.6173913-.5310145-2.9014493-.7617391-2.9014493"/><path d="m30.5441739 47.8028406h-11.7223188l2.4614492 5.8h9.2608696c.2284058 0 .76-.2817392.76-2.8985507 0-2.6173913-.5315942-2.9014493-.76-2.9014493"/><path d="m31.7022029 40.8463188h-15.8336232l2.4626087 5.8011595h13.3710145c.2307246 0 .7617391-.284058.7617391-2.8997102 0-2.6173913-.5310145-2.9014493-.7617391-2.9014493"/><path d="m13.968 39.6884638-2.9536232-6.9582609h1.4092754l2.9536232 6.9588406 6.2701449.0017391-5.4156522-12.7576812h-13.5211594c-1.04173913 0-1.61391305 0-2.08289855 1.5095653-.56289856 1.8017391-.62782609 5.2034782-.62782609 11.8237681 0 6.6202898.06492753 10.022029.62782609 11.8237681.4689855 1.5095652 1.04115942 1.5095652 2.08289855 1.5095652l11.862029.0017391-5.87710147-13.9147826z" mask="url(#a)"/><path d="m35.1146667 51.7068406h.369855c.0776812 0 .1553624-.0028986.2330435-.0098551.0776812-.0057971.1478261-.0226087.2110145-.0486956.0626087-.026087.1136232-.0643479.1524638-.1165218s.057971-.1234782.057971-.213913-.0191304-.1617392-.057971-.2139131-.0898551-.0904348-.1524638-.1165217c-.0631884-.026087-.1333333-.0411594-.2110145-.0452174-.0776811-.0046377-.1553623-.0069565-.2330435-.0069565h-.369855zm-.506087-1.1994203h1.0637681c.3327536 0 .577971.0713043.7356522.213913.1582609.1426087.2371014.3478261.2371014.6156522 0 .2423188-.0620289.4243478-.1860869.5455073-.1246377.1211594-.2805797.1924637-.4689855.213913l.7136232 1.1675362h-.5321739l-.6869566-1.1292753h-.369855v1.1292753h-.506087zm-1.0568116 1.3942029c0 .2724638.0521739.5298551.1553623.7715942.1037682.2423188.2457971.4527536.4249276.6324638.1797101.1791304.3901449.3211594.6324637.4243478.2417392.1043478.4991305.155942.7715942.155942.2724638 0 .5298551-.0515942.7715942-.155942.2423189-.1031884.4527537-.2452174.6324638-.4243478.1791304-.1797102.3211594-.390145.4243478-.6324638.1043479-.2417391.1559421-.4991304.1559421-.7715942s-.0515942-.5292754-.1559421-.7715942c-.1031884-.2423189-.2452174-.4527536-.4243478-.6324638-.1797101-.1797101-.3901449-.3211594-.6324638-.4243478-.2417391-.1043478-.4991304-.155942-.7715942-.155942-.2724637 0-.529855.0515942-.7715942.155942-.2423188.1031884-.4527536.2446377-.6324637.4243478-.1791305.1797102-.3211594.3901449-.4249276.6324638-.1031884.2423188-.1553623.4991304-.1553623.7715942zm-.4284058 0c0-.3327536.0643478-.6452174.1918841-.9368116.1275362-.2921739.3002898-.5472464.5188406-.7657971.217971-.217971.4730434-.3907246.7646376-.5182609.292174-.1275362.6046377-.1913043.9373913-.1913043.3327537 0 .6452174.0637681.9368116.1913043.2921739.1275363.5472464.3002899.7657971.5182609.2179711.2185507.3907247.4736232.5182609.7657971.1275362.2915942.1913044.604058.1913044.9368116s-.0637682.6452174-.1913044.9368116c-.1275362.2921739-.3002898.5472464-.5182609.7652174-.2185507.2185507-.4736232.3913043-.7657971.5188406-.2915942.1275362-.6040579.1913043-.9368116.1913043-.3327536 0-.6452173-.0637681-.9373913-.1913043-.2915942-.1275363-.5466666-.3002899-.7646376-.5188406-.2185508-.217971-.3913044-.4730435-.5188406-.7652174-.1275363-.2915942-.1918841-.604058-.1918841-.9368116z"/></g></g></svg>

<?xml version="1.0" encoding="UTF-8" standalone="no"?>
<svg width="38px" height="80px" viewBox="0 0 38 80" version="1.1" xmlns="http://www.w3.org/2000/svg" xmlns:xlink="http://www.w3.org/1999/xlink" xmlns:sketch="https://www.sketchapp.com/ns">
    <!-- Generator: Sketch 3.4.4 (17249) - https://www.sketchapp.com -->
    <title>pantheon-logo-symbol</title>
    <desc>Created with Sketch.</desc>
    <defs>
        <path id="path-1" d="M0,0.536231884 L37.9484058,0.536231884 L37.9484058,80 L0,80 L0,0.536231884 Z"></path>
    </defs>
    <g id="New-Page" stroke="none" stroke-width="1" fill="none" fill-rule="evenodd" sketch:type="MSPage">
        <g id="Pantheon-Fist-Copy" sketch:type="MSLayerGroup">
            <path d="M3.27078261,0.536 L10.5733913,17.6577391 L1.27947826,17.6577391 L4.35310145,25.193971 L23.1878841,25.193971 L3.27078261,0.536 Z" id="Fill-1" fill="#EFD01B" sketch:type="MSShapeGroup"></path>
            <path d="M10.5970435,40.846087 L16.7483478,55.3388406 L5.79704348,55.3388406 L26.0451594,79.9997101 L18.7437101,62.8756522 L28.0364638,62.8756522 L24.9274783,55.3388406 L20.6161739,55.3388406 L14.4596522,40.846087 L10.5970435,40.846087 Z" id="Fill-2" fill="#EFD01B" sketch:type="MSShapeGroup"></path>
            <g id="Group-20">
                <path d="M30.5441739,32.7343188 C30.7725797,32.7343188 31.3041739,32.4502609 31.3041739,29.8317101 C31.3041739,27.216058 30.7725797,26.9331594 30.5441739,26.9331594 L17.5702609,26.9331594 L20.0322899,32.7343188 L30.5441739,32.7343188 Z" id="Fill-3" fill="#FFFFFF" sketch:type="MSShapeGroup"></path>
                <path d="M22.9853913,39.6908406 L31.701913,39.6896812 C31.9332174,39.6896812 32.4636522,39.4056232 32.4636522,36.7882319 C32.4636522,34.1714203 31.9332174,33.8885217 31.701913,33.8885217 L20.5227826,33.8896812 L22.9853913,39.6908406 Z" id="Fill-5" fill="#FFFFFF" sketch:type="MSShapeGroup"></path>
                <path d="M30.5441739,47.8028406 L18.8218551,47.8028406 L21.2833043,53.6028406 L30.5441739,53.6028406 C30.7725797,53.6028406 31.3041739,53.3211014 31.3041739,50.7042899 C31.3041739,48.0868986 30.7725797,47.8028406 30.5441739,47.8028406" id="Fill-7" fill="#FFFFFF" sketch:type="MSShapeGroup"></path>
                <path d="M31.7022029,40.8463188 L15.8685797,40.8463188 L18.3311884,46.6474783 L31.7022029,46.6474783 C31.9329275,46.6474783 32.463942,46.3634203 32.463942,43.7477681 C32.463942,41.1303768 31.9329275,40.8463188 31.7022029,40.8463188" id="Fill-9" fill="#FFFFFF" sketch:type="MSShapeGroup"></path>
                <path d="M30.5441739,47.8028406 L18.8218551,47.8028406 L21.2833043,53.6028406 L30.5441739,53.6028406 C30.7725797,53.6028406 31.3041739,53.3211014 31.3041739,50.7042899 C31.3041739,48.0868986 30.7725797,47.8028406 30.5441739,47.8028406" id="Fill-11" fill="#FFFFFF" sketch:type="MSShapeGroup"></path>
                <path d="M31.7022029,40.8463188 L15.8685797,40.8463188 L18.3311884,46.6474783 L31.7022029,46.6474783 C31.9329275,46.6474783 32.463942,46.3634203 32.463942,43.7477681 C32.463942,41.1303768 31.9329275,40.8463188 31.7022029,40.8463188" id="Fill-13" fill="#FFFFFF" sketch:type="MSShapeGroup"></path>
                <g id="Group-17">
                    <mask id="mask-2" sketch:name="Clip 16" fill="white">
                        <use xlink:href="#path-1"></use>
                    </mask>
                    <g id="Clip-16"></g>
                    <path d="M13.968,39.6884638 L11.0143768,32.7302029 L12.4236522,32.7302029 L15.3772754,39.6890435 L21.6474203,39.6907826 L16.2317681,26.9331014 L2.7106087,26.9331014 C1.66886957,26.9331014 1.09669565,26.9331014 0.627710145,28.4426667 C0.0648115942,30.2444058 -0.000115942029,33.6461449 -0.000115942029,40.2664348 C-0.000115942029,46.8867246 0.0648115942,50.2884638 0.627710145,52.0902029 C1.09669565,53.5997681 1.66886957,53.5997681 2.7106087,53.5997681 L14.5726377,53.6015072 L8.69553623,39.6867246 L13.968,39.6884638 Z" id="Fill-15" fill="#FFFFFF" sketch:type="MSShapeGroup" mask="url(#mask-2)"></path>
                </g>
                <path d="M35.1146667,51.7068406 L35.4845217,51.7068406 C35.5622029,51.7068406 35.6398841,51.703942 35.7175652,51.6969855 C35.7952464,51.6911884 35.8653913,51.6743768 35.9285797,51.6482899 C35.9911884,51.6222029 36.0422029,51.583942 36.0810435,51.5317681 C36.1198841,51.4795942 36.1390145,51.4082899 36.1390145,51.3178551 C36.1390145,51.2274203 36.1198841,51.1561159 36.0810435,51.103942 C36.0422029,51.0517681 35.9911884,51.0135072 35.9285797,50.9874203 C35.8653913,50.9613333 35.7952464,50.9462609 35.7175652,50.9422029 C35.6398841,50.9375652 35.5622029,50.9352464 35.4845217,50.9352464 L35.1146667,50.9352464 L35.1146667,51.7068406 Z M34.6085797,50.5074203 L35.6723478,50.5074203 C36.0051014,50.5074203 36.2503188,50.5787246 36.408,50.7213333 C36.5662609,50.863942 36.6451014,51.0691594 36.6451014,51.3369855 C36.6451014,51.5793043 36.5830725,51.7613333 36.4590145,51.8824928 C36.3343768,52.0036522 36.1784348,52.0749565 35.990029,52.0964058 L36.7036522,53.263942 L36.1714783,53.263942 L35.4845217,52.1346667 L35.1146667,52.1346667 L35.1146667,53.263942 L34.6085797,53.263942 L34.6085797,50.5074203 Z M33.5517681,51.9016232 C33.5517681,52.174087 33.603942,52.4314783 33.7071304,52.6732174 C33.8108986,52.9155362 33.9529275,53.125971 34.132058,53.3056812 C34.3117681,53.4848116 34.5222029,53.6268406 34.7645217,53.730029 C35.0062609,53.8343768 35.2636522,53.885971 35.5361159,53.885971 C35.8085797,53.885971 36.065971,53.8343768 36.3077101,53.730029 C36.550029,53.6268406 36.7604638,53.4848116 36.9401739,53.3056812 C37.1193043,53.125971 37.2613333,52.9155362 37.3645217,52.6732174 C37.4688696,52.4314783 37.5204638,52.174087 37.5204638,51.9016232 C37.5204638,51.6291594 37.4688696,51.3723478 37.3645217,51.130029 C37.2613333,50.8877101 37.1193043,50.6772754 36.9401739,50.4975652 C36.7604638,50.3178551 36.550029,50.1764058 36.3077101,50.0732174 C36.065971,49.9688696 35.8085797,49.9172754 35.5361159,49.9172754 C35.2636522,49.9172754 35.0062609,49.9688696 34.7645217,50.0732174 C34.5222029,50.1764058 34.3117681,50.3178551 34.132058,50.4975652 C33.9529275,50.6772754 33.8108986,50.8877101 33.7071304,51.130029 C33.603942,51.3723478 33.5517681,51.6291594 33.5517681,51.9016232 L33.5517681,51.9016232 Z M33.1233623,51.9016232 C33.1233623,51.5688696 33.1877101,51.2564058 33.3152464,50.9648116 C33.4427826,50.6726377 33.6155362,50.4175652 33.834087,50.1990145 C34.052058,49.9810435 34.3071304,49.8082899 34.5987246,49.6807536 C34.8908986,49.5532174 35.2033623,49.4894493 35.5361159,49.4894493 C35.8688696,49.4894493 36.1813333,49.5532174 36.4729275,49.6807536 C36.7651014,49.8082899 37.0201739,49.9810435 37.2387246,50.1990145 C37.4566957,50.4175652 37.6294493,50.6726377 37.7569855,50.9648116 C37.8845217,51.2564058 37.9482899,51.5688696 37.9482899,51.9016232 C37.9482899,52.2343768 37.8845217,52.5468406 37.7569855,52.8384348 C37.6294493,53.1306087 37.4566957,53.3856812 37.2387246,53.6036522 C37.0201739,53.8222029 36.7651014,53.9949565 36.4729275,54.1224928 C36.1813333,54.250029 35.8688696,54.3137971 35.5361159,54.3137971 C35.2033623,54.3137971 34.8908986,54.250029 34.5987246,54.1224928 C34.3071304,53.9949565 34.052058,53.8222029 33.834087,53.6036522 C33.6155362,53.3856812 33.4427826,53.1306087 33.3152464,52.8384348 C33.1877101,52.5468406 33.1233623,52.2343768 33.1233623,51.9016232 L33.1233623,51.9016232 Z" id="Fill-18" fill="#FFFFFF" sketch:type="MSShapeGroup"></path>
            </g>
        </g>
    </g>
</svg>
